symbols/web/data_exploration/materialsymbolssharp/data_exploration_wght700gradN25_20px.svg

<svg xmlns="http://www.w3.org/2000/svg" height="20" width="20"><path d="M10.021 18.833q-1.854 0-3.459-.698-1.604-.697-2.812-1.906-1.208-1.208-1.906-2.812-.698-1.605-.698-3.438 0-1.833.698-3.448.698-1.614 1.906-2.823Q4.958 2.5 6.562 1.812 8.167 1.125 10 1.125q1.833 0 3.448.687 1.614.688 2.823 1.896 1.208 1.209 1.896 2.823.687 1.615.687 3.469v8.833ZM10 16.229q2.583 0 4.406-1.833 1.823-1.834 1.823-4.417 0-2.583-1.823-4.406Q12.583 3.75 10 3.75q-2.583 0-4.417 1.823Q3.75 7.396 3.75 9.979q0 .125.01.292.011.167.032.333l1.937-1.958 2.729 2.333 2.021-2.021H9.104V6.667h5.271v5.271h-2.292v-1.376l-3.521 3.5-2.75-2.354-1.291 1.313q.833 1.458 2.271 2.333 1.437.875 3.208.875Zm6.354 1.25q.5 0 .823-.364.323-.365.323-.761 0-.5-.365-.823-.364-.323-.781-.323-.396 0-.76.323-.365.323-.365.823 0 .396.365.761.364.364.76.364Zm-7.458-7.5Z"/></svg>

<svg xmlns="http://www.w3.org/2000/svg" height="20" width="20"><path d="M10.021 18.833Q8.167 18.833 6.562 18.135Q4.958 17.438 3.75 16.229Q2.542 15.021 1.844 13.417Q1.146 11.812 1.146 9.979Q1.146 8.146 1.844 6.531Q2.542 4.917 3.75 3.708Q4.958 2.5 6.562 1.812Q8.167 1.125 10 1.125Q11.833 1.125 13.448 1.812Q15.062 2.5 16.271 3.708Q17.479 4.917 18.167 6.531Q18.854 8.146 18.854 10V18.833ZM10 16.229Q12.583 16.229 14.406 14.396Q16.229 12.562 16.229 9.979Q16.229 7.396 14.406 5.573Q12.583 3.75 10 3.75Q7.417 3.75 5.583 5.573Q3.75 7.396 3.75 9.979Q3.75 10.104 3.76 10.271Q3.771 10.438 3.792 10.604L5.729 8.646L8.458 10.979L10.479 8.958H9.104V6.667H14.375V11.938H12.083V10.562L8.562 14.062L5.812 11.708L4.521 13.021Q5.354 14.479 6.792 15.354Q8.229 16.229 10 16.229ZM16.354 17.479Q16.854 17.479 17.177 17.115Q17.5 16.75 17.5 16.354Q17.5 15.854 17.135 15.531Q16.771 15.208 16.354 15.208Q15.958 15.208 15.594 15.531Q15.229 15.854 15.229 16.354Q15.229 16.75 15.594 17.115Q15.958 17.479 16.354 17.479ZM8.896 9.979Q8.896 9.979 8.896 9.979Q8.896 9.979 8.896 9.979Q8.896 9.979 8.896 9.979Q8.896 9.979 8.896 9.979Q8.896 9.979 8.896 9.979Q8.896 9.979 8.896 9.979Q8.896 9.979 8.896 9.979Q8.896 9.979 8.896 9.979Q8.896 9.979 8.896 9.979Q8.896 9.979 8.896 9.979Q8.896 9.979 8.896 9.979Q8.896 9.979 8.896 9.979Z"/></svg>
